Newaita/actions/24/kdenlive-insert-edit.svg

<svg height="24" viewBox="0 0 24 24" width="24" xmlns="http://www.w3.org/2000/svg"><g fill="#424242"><path d="m6.945312 15.566406v.992188c0 .277344-.222656.496094-.496093.496094h-.992188c-.273437 0-.496093-.21875-.496093-.496094v-.992188c0-.273437.222656-.496094.496093-.496094h.992188c.273437 0 .496093.222657.496093.496094zm0 0"/><path d="m18.851562 15.566406v.992188c0 .277344-.21875.496094-.496093.496094h-.992188c-.273437 0-.496093-.21875-.496093-.496094v-.992188c0-.273437.222656-.496094.496093-.496094h.992188c.277343 0 .496093.222657.496093.496094zm0 0"/><path d="m3.96875 4.15625c-1.097656 0-1.984375.886719-1.984375 1.984375v11.90625c0 1.101563.886719 1.984375 1.984375 1.984375h4.960938v-1.984375h-3.96875c-.550782 0-.992188-.441406-.992188-.992187v-9.921876c0-.550781.441406-.992187.992188-.992187h3.96875v-1.984375zm10.914062 0v1.984375h3.96875c.550782 0 .992188.441406.992188.992187v9.921876c0 .550781-.441406.992187-.992188.992187h-3.96875v1.984375h4.960938c1.101562 0 1.988281-.882812 1.988281-1.984375v-11.90625c0-1.097656-.886719-1.984375-1.988281-1.984375zm0 0"/><path d="m6.945312 7.628906v.992188c0 .273437-.222656.496094-.496093.496094h-.992188c-.273437 0-.496093-.222657-.496093-.496094v-.992188c0-.273437.222656-.496094.496093-.496094h.992188c.273437 0 .496093.222657.496093.496094zm0 0"/><path d="m18.851562 7.628906v.992188c0 .273437-.21875.496094-.496093.496094h-.992188c-.273437 0-.496093-.222657-.496093-.496094v-.992188c0-.273437.222656-.496094.496093-.496094h.992188c.277343 0 .496093.222657.496093.496094zm0 0"/><path d="m11.410156 2.171875h.992188c.273437 0 .496094.222656.496094.496094v18.855469c0 .273437-.222657.496093-.496094.496093h-.992188c-.273437 0-.496094-.222656-.496094-.496093v-18.855469c0-.273438.222657-.496094.496094-.496094zm0 0"/></g></svg>

<svg xmlns="http://www.w3.org/2000/svg" xmlns:xlink="http://www.w3.org/1999/xlink" width="24px" height="24px" viewBox="0 0 24 24" version="1.1">
<g id="surface1">
     <defs>
  <style id="current-color-scheme" type="text/css">
   .ColorScheme-Text { color:#424242; } .ColorScheme-Highlight { color:#eeeeee; }
  </style>
 </defs>
<path style="fill:currentColor" class="ColorScheme-Text" d="M 6.945312 15.566406 L 6.945312 16.558594 C 6.945312 16.835938 6.722656 17.054688 6.449219 17.054688 L 5.457031 17.054688 C 5.183594 17.054688 4.960938 16.835938 4.960938 16.558594 L 4.960938 15.566406 C 4.960938 15.292969 5.183594 15.070312 5.457031 15.070312 L 6.449219 15.070312 C 6.722656 15.070312 6.945312 15.292969 6.945312 15.566406 Z M 6.945312 15.566406 "/>
     <defs>
  <style id="current-color-scheme" type="text/css">
   .ColorScheme-Text { color:#424242; } .ColorScheme-Highlight { color:#eeeeee; }
  </style>
 </defs>
<path style="fill:currentColor" class="ColorScheme-Text" d="M 18.851562 15.566406 L 18.851562 16.558594 C 18.851562 16.835938 18.632812 17.054688 18.355469 17.054688 L 17.363281 17.054688 C 17.089844 17.054688 16.867188 16.835938 16.867188 16.558594 L 16.867188 15.566406 C 16.867188 15.292969 17.089844 15.070312 17.363281 15.070312 L 18.355469 15.070312 C 18.632812 15.070312 18.851562 15.292969 18.851562 15.566406 Z M 18.851562 15.566406 "/>
     <defs>
  <style id="current-color-scheme" type="text/css">
   .ColorScheme-Text { color:#424242; } .ColorScheme-Highlight { color:#eeeeee; }
  </style>
 </defs>
<path style="fill:currentColor" class="ColorScheme-Text" d="M 3.96875 4.15625 C 2.871094 4.15625 1.984375 5.042969 1.984375 6.140625 L 1.984375 18.046875 C 1.984375 19.148438 2.871094 20.03125 3.96875 20.03125 L 8.929688 20.03125 L 8.929688 18.046875 L 4.960938 18.046875 C 4.410156 18.046875 3.96875 17.605469 3.96875 17.054688 L 3.96875 7.132812 C 3.96875 6.582031 4.410156 6.140625 4.960938 6.140625 L 8.929688 6.140625 L 8.929688 4.15625 Z M 14.882812 4.15625 L 14.882812 6.140625 L 18.851562 6.140625 C 19.402344 6.140625 19.84375 6.582031 19.84375 7.132812 L 19.84375 17.054688 C 19.84375 17.605469 19.402344 18.046875 18.851562 18.046875 L 14.882812 18.046875 L 14.882812 20.03125 L 19.84375 20.03125 C 20.945312 20.03125 21.832031 19.148438 21.832031 18.046875 L 21.832031 6.140625 C 21.832031 5.042969 20.945312 4.15625 19.84375 4.15625 Z M 14.882812 4.15625 "/>
     <defs>
  <style id="current-color-scheme" type="text/css">
   .ColorScheme-Text { color:#424242; } .ColorScheme-Highlight { color:#eeeeee; }
  </style>
 </defs>
<path style="fill:currentColor" class="ColorScheme-Text" d="M 6.945312 7.628906 L 6.945312 8.621094 C 6.945312 8.894531 6.722656 9.117188 6.449219 9.117188 L 5.457031 9.117188 C 5.183594 9.117188 4.960938 8.894531 4.960938 8.621094 L 4.960938 7.628906 C 4.960938 7.355469 5.183594 7.132812 5.457031 7.132812 L 6.449219 7.132812 C 6.722656 7.132812 6.945312 7.355469 6.945312 7.628906 Z M 6.945312 7.628906 "/>
     <defs>
  <style id="current-color-scheme" type="text/css">
   .ColorScheme-Text { color:#424242; } .ColorScheme-Highlight { color:#eeeeee; }
  </style>
 </defs>
<path style="fill:currentColor" class="ColorScheme-Text" d="M 18.851562 7.628906 L 18.851562 8.621094 C 18.851562 8.894531 18.632812 9.117188 18.355469 9.117188 L 17.363281 9.117188 C 17.089844 9.117188 16.867188 8.894531 16.867188 8.621094 L 16.867188 7.628906 C 16.867188 7.355469 17.089844 7.132812 17.363281 7.132812 L 18.355469 7.132812 C 18.632812 7.132812 18.851562 7.355469 18.851562 7.628906 Z M 18.851562 7.628906 "/>
     <defs>
  <style id="current-color-scheme" type="text/css">
   .ColorScheme-Text { color:#424242; } .ColorScheme-Highlight { color:#eeeeee; }
  </style>
 </defs>
<path style="fill:currentColor" class="ColorScheme-Text" d="M 11.410156 2.171875 L 12.402344 2.171875 C 12.675781 2.171875 12.898438 2.394531 12.898438 2.667969 L 12.898438 21.523438 C 12.898438 21.796875 12.675781 22.019531 12.402344 22.019531 L 11.410156 22.019531 C 11.136719 22.019531 10.914062 21.796875 10.914062 21.523438 L 10.914062 2.667969 C 10.914062 2.394531 11.136719 2.171875 11.410156 2.171875 Z M 11.410156 2.171875 "/>
</g>
</svg>
